!!!!SEGMENT: pl-kk--kk-i-68--001_anonim--missa-protexisti-me.krn
!!!cenid: 17xx:2273
!!!COM: Anonim
!!!COM-rismID:
!!!CDT:
!!!CNT:
!!!OPR: Missa
!!!OTL: Protexisti me
!!!OMV: 001
!!!PDT:
!!!AGN: Sacred; Mass
!!!SMS-siglum: PL-Kk
!!!SMS-shelfmark: Kk.I.68
!!!SMS-shelfwork: 001-001 M
!!!SMS-variant: Baſso PL-Kk KK.I.68:0010-0011
!!!SMS-altvar: Baſso PL-Kk KK.I.68:0014-0015
!!!NIFC-rismSourceID: 1001154624
!!!NIFC-islandoraID: pl-kk:2850
!!!URL-pdf-islandora: https://repozytorium.nifc.pl/islandora/object/pl-kk%3A2850/datastream/PDF/view
!!!URL-scan: https://polish.musicsources.pl/pl/lokalizacje/galeria/rekopisy/6139 @EN{Scan on Polish Music Herritage in Open Access Website} @PL{Skany w portalu Dziedzictwo Muzyki Polskiej w otwartym dostępie}
!!!ONB-nifc: UWAGA: części Mszy: 1. Protexisti me, 2. Kyrie, 3. Alleluia, 4. Posuisti Domine,
!!!AIN: 1 empty 2 tenor
!!!key:
**kern	**text	**kern	**text	**kern	**text
*part3	*part3	*part2	*part2	*part1	*part1
*staff3	*staff3	*staff2	*staff2	*staff1	*staff1
*Iempty	*	*Itenor	*	*Itenor	*
*I"Baſso	*	*I"Tenore Secundo	*	*I"Tenore Primo	*
*I'B	*	*I'T 2	*	*I'T 1	*
*clefF4	*	*clefC4	*	*clefC4	*
*k[]	*	*k[]	*	*k[]	*
*C:	*	*C:	*	*C:	*
*M3/2	*	*M3/2	*	*M3/2	*
*2\right	*	*2\right	*	*2\right	*
=1	=1	=1	=1	=1	=1
2C/	Pro-	1G	Pro-	1e	Pro-
2E\	.	.	.	.	.
2G\	-te-	2B\	-te-	2d\	-te-
=2	=2	=2	=2	=2	=2
2c\	-xis-	2G/	-xis-	2c\	-xis-
2E\	-ti	2G/	-ti	2c\	-ti
2G\	me	2B\	me	2d\	me
=3	=3	=3	=3	=3	=3
4C/	De-	1G	De-	1e	De-
4D/	.	.	.	.	.
4E/	.	.	.	.	.
4F/	.	.	.	.	.
2G\	-us	2B\	-us	2d\	-us
=4	=4	=4	=4	=4	=4
2r	.	2r	.	2r	.
2G\	à	2d\	à	2f\	à
2c\	con-	2c\	con-	2e\	con-
=5	=5	=5	=5	=5	=5
2B\	-ven-	1f	-ven-	1d	-ven-
2G\	.	.	.	.	.
2c\	-tu	2e\	-tu	2c\	-tu
=6	=6	=6	=6	=6	=6
1G	ma-	2d\	ma-	2B\	ma-
.	.	2e\	.	2c\	.
2G\	-li-	2f\	-li-	2d\	-li-
=7	=7	=7	=7	=7	=7
!LO:LB:g=original	!	!	!	!	!
2F\	-gnan-	2e\	-gnan-	2c\	-gnan-
2D\	.	2d\	.	2d\	.
2C\	.	2c\	.	2e\	.
=8	=8	=8	=8	=8	=8
!	!	!	!	!LO:LB:g=original	!
2F\	.	2A\	.	1d	.
2G\	.	2.B\	.	.	.
2G\	-ti-	.	.	2d\	-ti-
.	.	4B\	-ti-	.	.
=9	=9	=9	=9	=9	=9
!	!	!LO:LB:g=original	!	!	!
2C/	-um	2G/	-um	2c\	-um
2c\	al-	2e\	al-	2g\	al-
2G\	-le-	2d\	-le-	2f\	le-
=10	=10	=10	=10	=10	=10
2C/	.	2c\	.	2e\	.
2D/	.	2B\	.	2d\	.
2E/	.	2G/	.	2c\	.
=11	=11	=11	=11	=11	=11
2F\	.	2B\	.	2d\	-lu-
1G	-lu-	2e\	.	2c\	.
.	.	2d\	-lu-	2B\	.
=12	=12	=12	=12	=12	=12
1C	-ia	1e	-ia	1c	-ia
2r	.	2r	.	2G/	à
=13	=13	=13	=13	=13	=13
!LO:N:vis=0	!	!	!	!	!
0.r	.	1.r	.	4c\	mul-
.	.	.	.	4d\	.
.	.	.	.	4e\	.
.	.	.	.	4d\	.
.	.	.	.	4e\	.
.	.	.	.	4f\	-ti-
=14-	=14	=14	=14	=14	=14
!	!	!	!	!LO:LB:g=original	!
.	.	2r	.	2.g\	-tu-
.	.	2r	.	.	.
.	.	.	.	4g\	-di-
.	.	2G/	à	2g\	-ne
=15-	=15	=15	=15	=15	=15
!LO:N:vis=1	!	!	!	!	!
1.r	.	4G/	mul-	2g\	à
.	.	4A/	.	.	.
.	.	4B/	.	2g\	mul-
.	.	4G/	.	.	.
.	.	4A/	-ti-	2f\	-ti
.	.	4B/	.	.	.
=16	=16	=16	=16	=16	=16
2r	.	2.c\	-tu-	2.e\	tu
2r	.	.	.	.	.
.	.	4c\	-di-	4e\	di-
2C/	à	2c\	-ne	2e\	-ne
=17	=17	=17	=17	=17	=17
!LO:LB:g=original	!	!	!	!	!
4C/	mul-	2c\	à	2e\	à
4D/	.	.	.	.	.
4E/	.	2c\	mul-	2e\	mul-
4D/	.	.	.	.	.
4E/	.	2c\	-ti-	2e\	-ti-
4F/	-ti-	.	.	.	.
=18	=18	=18	=18	=18	=18
2.G\	-tu-	2.B\	-tu-	2.d\	-tu-
4G\	-di-	4B\	-di-	4d\	-di-
2G\	-ne	2B\	-ne	2d\	-ne
=19	=19	=19	=19	=19	=19
1G	o-	2d\	o-	2f\	o-
.	.	2B\	.	2d\	.
2c\	-pe-	2c\	-pe-	2e\	-pe-
=20	=20	=20	=20	=20	=20
!	!	!	!	!LO:LB:g=original	!
2G\	-ran-	2f\	-ran-	2d\	-ran-
2F\	-ti-	2d\	-ti-	2B\	-ti-
2E\	-um	2e\	-um	2c\	-um
=21	=21	=21	=21	=21	=21
2G\	i-	2d\	i-	2f\	i-
2G\	-ni-	2d\	-ni-	2f\	-ni-
2G\	-qui-	2c\	-qui-	2e\	-qui-
=22	=22	=22	=22	=22	=22
2G\	-ta-	2c\	-ta-	2e\	-ta-
2G\	-tem	2B\	-tem	2d\	-tem
2r	.	2r	.	2r	.
=23	=23	=23	=23	=23	=23
!LO:LB:g=original	!	!	!	!	!
1G	al-	4B\	al-	4d\	al-
.	.	4A\	.	4c\	.
.	.	4G\	-le-	4B\	-le-
.	.	4A\	.	4c\	.
2G\	-le-	4B\	.	4d\	.
.	.	4c\	.	4e\	.
=24	=24	=24	=24	=24	=24
2B\	-lu-	1d	-lu-	1f	-lu-
2G\	.	.	.	.	.
2c\	-ia	2c\	-ia	2e\	-ia
=25	=25	=25	=25	=25	=25
!	!	!LO:LB:g=original	!	!	!
2F\	al-	2f\	al-	2d\	al-
2G\	le-	2e\	-le-	2c\	-le-
2G\	-lu-	2d\	-lu-	2B\	-lu-
=26	=26	=26	=26	=26	=26
!	!	!	!	!LO:LB:g=original	!
2C/	-ia	2e\	-ia	2c\	-ia
2A\	al-	2c\	al-	2f\	al-
2G\	-le-	2c\	.	2e\	.
=27	=27	=27	=27	=27	=27
1F	-lu-	1B	-le-	1d	-le-
2E\	-ia	2c\	.	2c\	.
=28	=28	=28	=28	=28	=28
2F\	al-	2A\	.	2d\	.
2G\	-le-	2e\	.	2c\	.
2GG/	-lu-	2d\	-lu-	2B\	-lu-
=29	=29	=29	=29	=29	=29
1.C	-ia	1.e	-ia	1.c	-ia
=30||	=30||	=30||	=30||	=30||	=30||
*M2/2	*	*M2/2	*	*M2/2	*
*met(c|)	*	*met(c|)	*	*met(c|)	*
!LO:LB:g=original	!	!LO:LB:g=original	!	!LO:LB:g=original	!
4C\	Ex-	1G	Ex-	1c	Ex-
4D\	.	.	.	.	.
4E\	.	.	.	.	.
4C\	.	.	.	.	.
=31	=31	=31	=31	=31	=31
2G\	-au-	2e\	-au-	2c\	-au-
2G\	-di	2d\	-di	2B\	-di
=32	=32	=32	=32	=32	=32
4c\	De-	1c	De-	1e	De-
4G\	.	.	.	.	.
4E\	.	.	.	.	.
4C\	.	.	.	.	.
=33	=33	=33	=33	=33	=33
2G\	-us,	2B\	-us,	2d\	-us,
2G\	o-	4B\	o-	4d\	o-
.	.	4c\	.	4e\	.
=34	=34	=34	=34	=34	=34
2G\	-ra-	4d\	-ra-	4f\	-ra-
.	.	4c\	.	4e\	.
2G\	-ti-	4B\	-ti-	4d\	.
.	.	4d\	.	4f\	-ti-
=35	=35	=35	=35	=35	=35
2c\	-o-	4c\	-o-	4e\	-o-
.	.	4B\	.	4d\	.
2C/	-nem	4G\	-nem	4c\	.
.	.	4c\	.	4e\	-nem
=36	=36	=36	=36	=36	=36
2F\	me-	4f\	me-	4d\	me-
.	.	4e\	.	4c\	.
2G\	.	4d\	.	4B\	.
.	.	4f\	.	4d\	.
=37	=37	=37	=37	=37	=37
!LO:LB:g=original	!	!	!	!LO:LB:g=original	!
2C/	-am	2e\	-am	2c\	-am
2C/	cum	2c\	cum	2e\	cum
=38	=38	=38	=38	=38	=38
2.G\	de-	2.B\	de-	2.d\	de-
4F#X\	-pre-	4A\	-pre-	4c\	-pre-
=39	=39	=39	=39	=39	=39
!	!	!LO:LB:g=original	!	!	!
2G\	-cor	2G/	-cor	2B\	-cor
4G\	à	4G/	à	4B\	à
4G\	ti-	4A/	ti-	4c\	ti-
=40	=40	=40	=40	=40	=40
2F\	-mo-	2B\	-mo-	2d\	-mo-
2E\	-re	2c\	-re	2e\	-re
=41	=41	=41	=41	=41	=41
2G\	i-	2d\	i-	2f\	i-
2c\	-ni-	2c\	-ni-	2e\	-ni-
=42	=42	=42	=42	=42	=42
2B\	-mi-	2G/	-mi-	2d\	-mi-
2c\	-ci	2G/	-ci	2c\	-ci
=43	=43	=43	=43	=43	=43
4G\	e-	4d\	e-	4B\	e-
4G\	-ri-	4d\	-ri-	4B\	-ri-
2E\	-pe	2e\	-pe	2c\	-pe
=44	=44	=44	=44	=44	=44
!	!	!	!	!LO:LB:g=original	!
4G\	a-	4B\	a-	4d\	a-
4G\	-ni-	4B\	-ni-	4d\	-ni-
2c\	-mam	2c\	-mam	2e\	-mam
=45	=45	=45	=45	=45	=45
1G	me-	2c\	me-	1d	me-
.	.	2B\	.	.	.
=46	=46	=46	=46	=46	=46
1C	-am	1G	-am	1c	-am
=47||	=47||	=47||	=47||	=47||	=47||
*M3/2	*	*M3/2	*	*M3/2	*
!LO:LB:g=original	!	!LO:LB:g=original	!	!LO:LB:g=original	!
2.C/	Glo-	2.G/	Glo-	2.c\	Glo-
4C/	-ri-	4G/	-ri-	4c\	-ri-
2E\	-a	2G/	-a	2c\	-a
=48	=48	=48	=48	=48	=48
2G\	Pa-	2B\	Pa-	2d\	Pa-
2G\	-tri	2c\	-tri	2e\	-tri
2G\	et	2d\	et	2f\	et
=49	=49	=49	=49	=49	=49
2.c\	fi-	2.G/	fi-	2.e\	Fi-
4C/	-li-	4G/	-li-	4e\	-li-
2C/	-o	2G/	-o	2e\	-o
=50	=50	=50	=50	=50	=50
2r	.	2r	.	2r	.
2G\	et	2B\	et	2d\	et
2G\	Spi-	2c\	Spi-	2e\	Spi-
=51	=51	=51	=51	=51	=51
2.B\	-ri-	2.d\	-ri-	2.f\	-ri-
4G\	-tu-	4d\	-tu-	4f\	-tu-
2c\	-i	2c\	-i	2e\	-i
=52	=52	=52	=52	=52	=52
2F\	San-	2f\	San-	2d\	San-
1G	.	2e\	.	2c\	.
.	.	2d\	.	2B\	.
=53	=53	=53	=53	=53	=53
!LO:LB:g=original	!	!	!	!LO:PB:g=original	!
2C/	-cto	2e\	-cto	2c\	-cto
2E\	Si-	2e\	si-	2g\	si-
2G\	-cut	2d\	-cut	2f\	-cut
=54	=54	=54	=54	=54	=54
!	!	!LO:LB:g=original	!	!	!
1c	e-	1c	e-	1e	e-
2G\	-rat	2B\	-rat	2d\	-rat
=55	=55	=55	=55	=55	=55
2r	.	2r	.	2r	.
2G\	in	2d\	in	2f\	in
2G\	prin-	2c\	prin-	2e\	prin-
=56	=56	=56	=56	=56	=56
2.G\	-ci-	2.B\	-ci-	2.d\	-ci-
4G\	-pi-	4B\	-pi-	4d\	-pi-
2c\	-o	2c\	-o	2e\	-o
=57	=57	=57	=57	=57	=57
2G\	et	2B\	et	2d\	et
2G\	nunc	2c\	nunc	2e\	nunc
2G\	et	2d\	et	2f\	et
=58	=58	=58	=58	=58	=58
2G\	sem-	2c\	sem-	2e\	sem-
2G\	-per	2B\	-per	2d\	-per
2r	.	2r	.	2r	.
=59	=59	=59	=59	=59	=59
!LO:PB:g=original	!	!	!	!	!
2G\	et	1B	et	1d	et
1G	in	.	.	.	.
.	.	2B\	in	2d\	in
=60	=60	=60	=60	=60	=60
!	!	!	!	!LO:LB:g=original	!
2.C/	sae-	2.G/	sae-	2.e\	sae-
4C/	-cu-	4G/	-cu-	4e\	-cu-
2C/	-la	2G/	-la	2e\	-la
=61	=61	=61	=61	=61	=61
1G	sae-	2B\	sae-	2d\	sae-
.	.	2c\	.	2e\	.
2G\	-cu-	2d\	-cu-	2f\	-cu-
=62	=62	=62	=62	=62	=62
!	!	!LO:LB:g=original	!	!	!
2C/	-lo-	2c\	-lo-	2e\	-lo-
2D/	.	2B\	.	2d\	.
2E/	-rum	2G/	-rum	2c\	-rum
=63	=63	=63	=63	=63	=63
2F\	a-	2A/	a-	2d\	a-
1G	.	2e\	.	2c\	.
.	.	2d\	.	2B\	.
=64	=64	=64	=64	=64	=64
!LO:TX:b:t=Protexisti\nDa Capo	!	!LO:TX:b:t=Protexisti me da Capo	!	!LO:TX:b:t=Protexisti me\nda capo	!
1.C	-men.	1.e	-men	1.c	-men
==	==	==	==	==	==
*-	*-	*-	*-	*-	*-
!!!system-decoration: [(s1,s2,s3)]
!!!ENC: Kamil Watkowski
!!!END: 2021-08-06
